X:144
T:Polka n3
O:France
R:Polka
A:Provence
Z:Transcrit et/ou corrig par Michel BELLON - 2005-07-24
Z:Pour toute observation mailto:galouvielle@free.fr
M:2/4
L:1/8
K:F
((3d/c/B/) | Af fB/A/ | Ge eG/F/ | Ed dc/=B/ | c/d/c/=B/ c/d/c/_B/ |
Af fB/A/ | Ge eG/F/ | Ed d/c/d/e/ | fff :| !fine! z |: bfdf | BA A2 |
((3c/d/c/)=B ((3c/d/c/)=B | ccdB | bfdf | BAA2 | ((3c/d/c/)=B cA | BBBz :|
P:trio
ded>c | c4 | AcB>G | F4 | Ace>g | f3e | dc B/A/G/A/ |
c2Bz | ded>c | B4 | AcB>G | F4 | Ace>g | f3e | dc B/A/G/A/ | BBB S :|
%%footer $D   Galouvielle-MBe 2008 \nPolka (France)
